symbols/web/event_note/materialsymbolsrounded/event_note_wght600grad200_40px.svg

<svg xmlns="http://www.w3.org/2000/svg" height="40" width="40"><path d="M13.208 23.083q-.791 0-1.27-.5-.48-.5-.48-1.208 0-.75.48-1.229.479-.479 1.27-.479h13.625q.75 0 1.229.479.48.479.48 1.229 0 .708-.48 1.208-.479.5-1.229.5Zm0 7.209q-.791 0-1.27-.48-.48-.479-.48-1.229 0-.75.48-1.229.479-.479 1.27-.479h8.584q.75 0 1.229.5.479.5.479 1.208 0 .75-.479 1.229-.479.48-1.229.48Zm-5.25 7.458q-1.666 0-2.854-1.208-1.187-1.209-1.187-2.834V9q0-1.625 1.187-2.812Q6.292 5 7.958 5h1.667v-.917q0-.708.563-1.271.562-.562 1.312-.562.792 0 1.312.562.521.563.521 1.271V5h13.334v-.917q0-.708.541-1.271.542-.562 1.334-.562.791 0 1.312.562.521.563.521 1.271V5h1.667q1.666 0 2.854 1.188Q36.083 7.375 36.083 9v24.708q0 1.625-1.187 2.834-1.188 1.208-2.854 1.208Zm0-4.042h24.084V16.125H7.958v17.583Zm0-20.708h24.084V9H7.958Zm0 0V9v4Z"/></svg>

<svg xmlns="http://www.w3.org/2000/svg" height="40" width="40"><path d="M13.208 23.083Q12.417 23.083 11.938 22.583Q11.458 22.083 11.458 21.375Q11.458 20.625 11.938 20.146Q12.417 19.667 13.208 19.667H26.833Q27.583 19.667 28.062 20.146Q28.542 20.625 28.542 21.375Q28.542 22.083 28.062 22.583Q27.583 23.083 26.833 23.083ZM13.208 30.292Q12.417 30.292 11.938 29.812Q11.458 29.333 11.458 28.583Q11.458 27.833 11.938 27.354Q12.417 26.875 13.208 26.875H21.792Q22.542 26.875 23.021 27.375Q23.5 27.875 23.5 28.583Q23.5 29.333 23.021 29.812Q22.542 30.292 21.792 30.292ZM7.958 37.75Q6.292 37.75 5.104 36.542Q3.917 35.333 3.917 33.708V9Q3.917 7.375 5.104 6.188Q6.292 5 7.958 5H9.625V4.083Q9.625 3.375 10.188 2.812Q10.75 2.25 11.5 2.25Q12.292 2.25 12.812 2.812Q13.333 3.375 13.333 4.083V5H26.667V4.083Q26.667 3.375 27.208 2.812Q27.75 2.25 28.542 2.25Q29.333 2.25 29.854 2.812Q30.375 3.375 30.375 4.083V5H32.042Q33.708 5 34.896 6.188Q36.083 7.375 36.083 9V33.708Q36.083 35.333 34.896 36.542Q33.708 37.75 32.042 37.75ZM7.958 33.708H32.042Q32.042 33.708 32.042 33.708Q32.042 33.708 32.042 33.708V16.125H7.958V33.708Q7.958 33.708 7.958 33.708Q7.958 33.708 7.958 33.708ZM7.958 13H32.042V9Q32.042 9 32.042 9Q32.042 9 32.042 9H7.958Q7.958 9 7.958 9Q7.958 9 7.958 9ZM7.958 13V9Q7.958 9 7.958 9Q7.958 9 7.958 9Q7.958 9 7.958 9Q7.958 9 7.958 9V13Z"/></svg>
